X: 40272
T: Tobias Peyton
R: jig
M: 6/8
K: Cmajor
a|ged ded|c/2A3/2B c3/2d/2e/2^f/2|gec deg|abd' c'2g|
abc' d'c'd'|e'd'e' d'c'd'|c'ac' ab/2a/2g/2e/2|ga/2g/2e/2d/2 c2A|
Add ded|cge cc'a|ged cAc|d3d2||
B|c3/2B/2A GED|Ddd Add|egg ged|eaa a2b|
c'ge c'ge|dd'd' d'c'd'|e'f'/2e'/2d'/2c'/2 d'e'/2d'/2c'/2b/2|c'd'/2c'/2b/2a/2 gab|
c'ge ceg|c'ge dea|ged cAc|d3d2||

